frontend/src/assets/users.svg

<svg width="30" height="24" viewBox="0 0 30 24" fill="none" xmlns="http://www.w3.org/2000/svg">
<g clip-path="url(#clip0_436_1240)">
<path d="M6.75 0C7.74456 0 8.69839 0.395088 9.40165 1.09835C10.1049 1.80161 10.5 2.75544 10.5 3.75C10.5 4.74456 10.1049 5.69839 9.40165 6.40165C8.69839 7.10491 7.74456 7.5 6.75 7.5C5.75544 7.5 4.80161 7.10491 4.09835 6.40165C3.39509 5.69839 3 4.74456 3 3.75C3 2.75544 3.39509 1.80161 4.09835 1.09835C4.80161 0.395088 5.75544 0 6.75 0ZM24 0C24.9946 0 25.9484 0.395088 26.6516 1.09835C27.3549 1.80161 27.75 2.75544 27.75 3.75C27.75 4.74456 27.3549 5.69839 26.6516 6.40165C25.9484 7.10491 24.9946 7.5 24 7.5C23.0054 7.5 22.0516 7.10491 21.3484 6.40165C20.6451 5.69839 20.25 4.74456 20.25 3.75C20.25 2.75544 20.6451 1.80161 21.3484 1.09835C22.0516 0.395088 23.0054 0 24 0ZM0 14.0016C0 11.2406 2.24062 9 5.00156 9H7.00312C7.74844 9 8.45625 9.16406 9.09375 9.45469C9.03281 9.79219 9.00469 10.1438 9.00469 10.5C9.00469 12.2906 9.79219 13.8984 11.0344 15C11.025 15 11.0156 15 11.0016 15H0.998437C0.45 15 0 14.55 0 14.0016ZM18.9984 15C18.9891 15 18.9797 15 18.9656 15C20.2125 13.8984 20.9953 12.2906 20.9953 10.5C20.9953 10.1438 20.9625 9.79688 20.9062 9.45469C21.5438 9.15938 22.2516 9 22.9969 9H24.9984C27.7594 9 30 11.2406 30 14.0016C30 14.5547 29.55 15 29.0016 15H19.0031H18.9984ZM10.5 10.5C10.5 9.30653 10.9741 8.16193 11.818 7.31802C12.6619 6.47411 13.8065 6 15 6C16.1935 6 17.3381 6.47411 18.182 7.31802C19.0259 8.16193 19.5 9.30653 19.5 10.5C19.5 11.6935 19.0259 12.8381 18.182 13.682C17.3381 14.5259 16.1935 15 15 15C13.8065 15 12.6619 14.5259 11.818 13.682C10.9741 12.8381 10.5 11.6935 10.5 10.5ZM6 22.7484C6 19.2984 8.79844 16.5 12.2484 16.5H17.7469C21.2016 16.5 24 19.2984 24 22.7484C24 23.4375 23.4422 24 22.7484 24H7.24688C6.55781 24 5.99531 23.4422 5.99531 22.7484H6Z" fill="currentColor"/>
</g>
<defs>
<clipPath id="clip0_436_1240">
<rect width="30" height="24" fill="white"/>
</clipPath>
</defs>
</svg>

<svg xmlns="http://www.w3.org/2000/svg" fill="none" viewBox="0 0 30 24">
  <g clip-path="url(#a)">
    <path fill="currentColor" d="M6.8 0a3.7 3.7 0 1 1 0 7.5 3.7 3.7 0 0 1 0-7.5M24 0a3.7 3.7 0 1 1 0 7.5A3.7 3.7 0 0 1 24 0M0 14a5 5 0 0 1 5-5h2a5 5 0 0 1 2 .5v1a6 6 0 0 0 2 4.5H1a1 1 0 0 1-1-1m19 1a6 6 0 0 0 2-5.5 5 5 0 0 1 2-.5h2a5 5 0 0 1 5 5q0 1-1 1zm-8.5-4.5a4.5 4.5 0 1 1 9 0 4.5 4.5 0 0 1-9 0M6 22.7c0-3.4 2.8-6.2 6.2-6.2h5.5c3.5 0 6.3 2.8 6.3 6.2q-.1 1.2-1.3 1.3H7.2q-1-.1-1.2-1.3"/>
  </g>
  <defs>
    <clipPath id="a">
      <path fill="#fff" d="M0 0h30v24H0z"/>
    </clipPath>
  </defs>
</svg>
